public/Carlogo/Honda.svg

<svg width="48" height="48" viewBox="0 0 48 48" fill="none" xmlns="http://www.w3.org/2000/svg">
<g clip-path="url(#clip0_147_448)">
<path fill-rule="evenodd" clip-rule="evenodd" d="M41.9285 29.9163C41.6172 32.1888 41.3997 35.1625 39.7797 36.925C39.2097 37.5475 34.7922 40.1388 35.0022 38.14C35.8122 31.9 36.2585 25.6413 36.6447 19.36C36.7572 16.7238 36.9072 14.0838 36.941 11.4475C36.9822 11.0013 36.7047 9.9025 37.3985 9.8725C38.711 10.2588 40.151 10.645 41.0172 11.8075C42.6522 14.0088 42.461 17.3125 42.491 19.9188C42.5322 23.245 42.3785 26.62 41.9285 29.9163ZM33.2735 9.82C32.3735 13.1163 31.3385 17.485 30.4122 20.7925C29.6735 23.44 28.826 26.8525 25.6197 27.19C25.1397 27.2388 24.6335 27.2838 24.1197 27.2913C23.606 27.2838 23.0997 27.2388 22.6197 27.19C19.4135 26.8525 18.566 23.44 17.8272 20.7925C16.901 17.485 15.866 13.1163 14.966 9.82C14.8122 9.25375 15.0447 9.38125 16.2072 9.22375C18.2922 8.9425 21.401 8.8975 24.1197 8.92375C26.8347 8.8975 29.9472 8.9425 32.0322 9.22375C33.1947 9.38125 33.4272 9.25375 33.2735 9.82ZM29.8497 39.3738C29.591 39.4188 28.721 39.415 27.761 39.4375C26.546 39.4675 25.3347 39.4713 24.1197 39.4713C22.9085 39.4713 21.6935 39.4675 20.4785 39.4375C19.5185 39.415 18.6485 39.4188 18.3897 39.3738C18.131 39.3288 17.8647 39.31 17.9435 39.0213C18.0222 38.7288 19.1885 34.9413 19.1885 34.9413C19.9535 32.4213 20.006 32.2563 21.971 31.8663C22.6235 31.7388 23.3697 31.6563 24.1197 31.6488C24.8735 31.6563 25.616 31.7388 26.2685 31.8663C28.2335 32.2563 28.2897 32.4213 29.0547 34.9413C29.0547 34.9413 30.221 38.7288 30.296 39.0213C30.3747 39.31 30.1085 39.3288 29.8497 39.3738ZM8.45973 36.925C6.83598 35.1625 6.62223 32.1888 6.31098 29.9163C5.86098 26.62 5.70723 23.245 5.74473 19.9188C5.77473 17.3125 5.58723 14.0088 7.22223 11.8075C8.08848 10.645 9.52848 10.2588 10.841 9.8725C11.5347 9.9025 11.2572 11.0013 11.2985 11.4475C11.3322 14.0838 11.4822 16.7238 11.5947 19.36C11.9772 25.6413 12.4272 31.9 13.2372 38.14C13.4472 40.1388 9.02973 37.5475 8.45973 36.925ZM45.1647 17.1063C45.0185 14.6463 44.6585 11.9613 42.851 10.1388C41.201 8.48125 38.8197 8.01625 36.6072 7.71625C32.4372 7.1575 28.3272 7.00375 24.1197 7C19.9122 7.00375 15.8022 7.1575 11.6322 7.71625C9.41973 8.01625 7.03848 8.48125 5.38848 10.1425C3.58098 11.9613 3.22098 14.6463 3.07473 17.1063C2.90598 19.9563 3.05223 22.8025 3.22473 25.6488C3.40098 28.45 3.71223 31.2775 4.39098 34.0075C4.70598 35.2713 5.13348 36.5425 5.86098 37.63C6.56223 38.6725 7.57098 39.415 8.69973 39.9325C11.0997 41.0387 13.8672 41.1325 16.4585 41.2938C19.001 41.4513 21.5585 41.5488 24.1197 41.56C26.681 41.5488 29.2385 41.4513 31.781 41.2938C34.3722 41.1325 37.1397 41.035 39.5397 39.9325C40.6685 39.4113 41.6772 38.6725 42.3785 37.6263C43.106 36.5388 43.5335 35.2675 43.8485 34.0038C44.5272 31.2775 44.8385 28.45 45.0147 25.645C45.1872 22.8025 45.3335 19.9563 45.1647 17.1063Z" fill="black"/>
</g>
<defs>
<clipPath id="clip0_147_448">
<rect width="48" height="48" fill="white"/>
</clipPath>
</defs>
</svg>

<svg xmlns="http://www.w3.org/2000/svg" width="48" height="48" fill="none" viewBox="0 0 48 48"><g clip-path="url(#a)"><path fill="#000" fill-rule="evenodd" d="M41.929 29.916c-.312 2.273-.53 5.247-2.15 7.009-.57.623-4.987 3.214-4.777 1.215.81-6.24 1.256-12.499 1.643-18.78.112-2.636.262-5.276.296-7.912.041-.447-.236-1.546.457-1.575 1.313.386 2.753.772 3.62 1.935 1.634 2.2 1.443 5.505 1.473 8.11.041 3.327-.112 6.702-.562 9.998M33.273 9.82c-.9 3.296-1.935 7.665-2.86 10.973-.74 2.647-1.587 6.06-4.793 6.397-.48.049-.986.094-1.5.101a17 17 0 0 1-1.5-.101c-3.207-.338-4.054-3.75-4.793-6.398-.926-3.307-1.961-7.676-2.861-10.972-.154-.566.079-.439 1.241-.596 2.085-.281 5.194-.326 7.913-.3 2.715-.026 5.827.019 7.912.3 1.163.157 1.395.03 1.242.596M29.85 39.374c-.259.045-1.129.041-2.089.063-1.215.03-2.426.034-3.641.034-1.212 0-2.427-.003-3.642-.033-.96-.023-1.83-.02-2.088-.064-.259-.045-.525-.064-.447-.353.08-.292 1.245-4.08 1.245-4.08.765-2.52.818-2.685 2.783-3.075.652-.127 1.399-.21 2.149-.217.753.007 1.496.09 2.148.217 1.965.39 2.022.555 2.787 3.075 0 0 1.166 3.788 1.241 4.08.079.289-.187.308-.446.353M8.46 36.925c-1.624-1.762-1.838-4.736-2.149-7.009-.45-3.296-.604-6.671-.566-9.997.03-2.607-.158-5.91 1.477-8.112.866-1.162 2.306-1.548 3.619-1.934.694.03.416 1.128.458 1.575.033 2.636.183 5.276.296 7.912.382 6.281.832 12.54 1.642 18.78.21 1.999-4.207-.593-4.777-1.215m36.705-19.819c-.146-2.46-.507-5.145-2.314-6.967-1.65-1.658-4.031-2.123-6.244-2.423-4.17-.559-8.28-.712-12.487-.716-4.208.004-8.318.157-12.488.716-2.212.3-4.594.765-6.244 2.427-1.807 1.818-2.167 4.503-2.313 6.963-.169 2.85-.023 5.696.15 8.543.176 2.801.487 5.628 1.166 8.359.315 1.263.742 2.534 1.47 3.622.701 1.042 1.71 1.785 2.839 2.302 2.4 1.107 5.167 1.2 7.759 1.362 2.542.157 5.1.255 7.66.266 2.562-.011 5.12-.109 7.662-.266 2.591-.161 5.359-.259 7.759-1.361 1.129-.522 2.137-1.26 2.839-2.307.727-1.087 1.154-2.358 1.47-3.622.678-2.726.99-5.554 1.166-8.359.172-2.843.319-5.689.15-8.539" clip-rule="evenodd"/></g><defs><clipPath id="a"><path fill="#fff" d="M0 0h48v48H0z"/></clipPath></defs></svg>
